dist/icons/svgs/file-download-solid.svg

<svg xmlns="http://www.w3.org/2000/svg" width="24" height="24" fill="currentcolor" class="icon-file-download-solid" viewBox="0 0 24 24">
  <path d="M7.5 2H13.75V7C13.75 7.70312 14.2969 8.25 15 8.25H20V19.5C20 20.9062 18.8672 22 17.5 22H7.5C6.09375 22 5 20.9062 5 19.5V4.5C5 3.13281 6.09375 2 7.5 2ZM15 2L20 7H15V2ZM13.4375 11.0625H13.3984C13.3984 10.5547 13.0078 10.125 12.4609 10.125C11.9531 10.125 11.5234 10.5547 11.5234 11.0625V15.0859L10.3125 13.875C9.96094 13.4844 9.375 13.4844 9.02344 13.875C8.63281 14.2266 8.63281 14.8125 9.02344 15.1641L11.8359 17.9766C12.1875 18.3672 12.7734 18.3672 13.125 17.9766L15.9375 15.1641C16.3281 14.8125 16.3281 14.2266 15.9375 13.875C15.5859 13.4844 15 13.4844 14.6484 13.875L13.4375 15.0859V11.0625Z"/>
</svg>

<svg xmlns="http://www.w3.org/2000/svg" width="24" height="24" fill="currentColor" class="icon-file-download-solid" viewBox="0 0 24 24">
  <path d="M7.5 2h6.25v5c0 .703.547 1.25 1.25 1.25h5V19.5c0 1.406-1.133 2.5-2.5 2.5h-10A2.47 2.47 0 0 1 5 19.5v-15C5 3.133 6.094 2 7.5 2M15 2l5 5h-5zm-1.562 9.063h-.04a.925.925 0 0 0-.937-.938.95.95 0 0 0-.938.938v4.023l-1.21-1.211a.856.856 0 0 0-1.29 0 .856.856 0 0 0 0 1.29l2.813 2.812c.351.39.937.39 1.289 0l2.813-2.813a.856.856 0 0 0 0-1.289.856.856 0 0 0-1.29 0l-1.21 1.21z"/>
</svg>
